docs/styles/img/workProcess/22.svg

<svg width="262" height="343" viewBox="0 0 262 343" fill="none" xmlns="http://www.w3.org/2000/svg">
<path d="M-46.686 354.317C7.91829 313.366 50.2519 278.943 80.3149 251.049C110.991 223.154 133.079 197.931 146.576 175.378C160.687 152.825 167.743 130.569 167.743 108.61C167.743 83.6829 159.767 64.0976 143.815 49.8537C127.864 35.0163 107.617 27.5975 83.0758 27.5975C58.5346 27.5975 37.061 36.7968 18.6551 55.1951C0.249147 73 -13.8621 99.7073 -23.6786 135.317C-23.6786 135.911 -24.9056 136.207 -27.3597 136.207C-32.8815 136.207 -35.3356 135.02 -34.7221 132.646L0.249157 1.78045C0.249157 0.593459 1.47622 0 3.93034 0C5.77093 0 7.30476 0.593459 8.53182 1.78045C10.3724 2.37396 10.9859 2.96746 10.3724 3.56095C9.75888 5.93494 9.45211 8.90244 9.45211 12.4634C9.45211 21.9593 14.0536 26.7073 23.2566 26.7073C28.7783 26.7073 37.9813 24.6301 50.8655 20.4756C60.0684 18.1016 70.4984 15.7276 82.1555 13.3536C93.8126 10.9796 105.163 9.79268 116.207 9.79268C146.883 9.79268 171.118 18.1016 188.91 34.7195C207.316 50.7439 216.519 72.1098 216.519 98.8171C216.519 118.996 210.077 139.175 197.193 159.354C184.922 179.533 164.675 202.382 136.453 227.902C108.231 253.423 68.9646 284.878 18.6551 322.268C16.201 324.049 15.2807 325.532 15.8942 326.719C17.1213 327.906 19.2686 328.5 22.3363 328.5C94.1194 328.5 143.202 327.61 169.584 325.829C196.579 323.455 215.599 318.411 226.642 310.695C237.686 302.386 245.662 287.846 250.57 267.073C251.183 265.886 253.024 265.589 256.092 266.183C259.773 266.183 261.613 266.776 261.613 267.963L248.729 355.207C248.729 357.581 247.809 359.955 245.968 362.329C244.741 364.11 242.901 365 240.447 365H-40.2439C-42.698 365 -44.8454 363.813 -46.686 361.439C-48.5266 359.065 -48.5266 356.691 -46.686 354.317Z" fill="#FF3D00" fill-opacity="0.2"/>
</svg>

<svg width="262" height="343" fill="none" xmlns="http://www.w3.org/2000/svg"><path d="M-46.686 354.317c54.604-40.951 96.938-75.374 127-103.268 30.677-27.895 52.765-53.118 66.262-75.671 14.111-22.553 21.167-44.809 21.167-66.768 0-24.927-7.976-44.512-23.928-58.756-15.951-14.838-36.198-22.256-60.74-22.256-24.54 0-46.014 9.199-64.42 27.597C.25 73-13.862 99.707-23.679 135.317c0 .594-1.227.89-3.68.89-5.523 0-7.977-1.187-7.363-3.561L.249 1.78C.25.593 1.476 0 3.93 0c1.84 0 3.375.593 4.602 1.78 1.84.594 2.454 1.187 1.84 1.781-.613 2.374-.92 5.341-.92 8.902 0 9.496 4.602 14.244 13.805 14.244 5.521 0 14.724-2.077 27.608-6.231 9.203-2.374 19.633-4.748 31.29-7.122 11.658-2.374 23.008-3.561 34.052-3.561 30.676 0 54.911 8.309 72.703 24.926 18.406 16.025 27.609 37.39 27.609 64.098 0 20.179-6.442 40.358-19.326 60.537-12.271 20.179-32.518 43.028-60.74 68.548-28.222 25.521-67.488 56.976-117.798 94.366-2.454 1.781-3.374 3.264-2.76 4.451 1.226 1.187 3.374 1.781 6.441 1.781 71.783 0 120.866-.89 147.248-2.671 26.995-2.374 46.015-7.418 57.058-15.134 11.044-8.309 19.02-22.849 23.928-43.622.613-1.187 2.454-1.484 5.522-.89 3.681 0 5.521.593 5.521 1.78l-12.884 87.244c0 2.374-.92 4.748-2.761 7.122-1.227 1.781-3.067 2.671-5.521 2.671h-280.69c-2.455 0-4.602-1.187-6.443-3.561-1.84-2.374-1.84-4.748 0-7.122z" fill="#FF3D00" fill-opacity=".2"/></svg>
